brandFactory_export/3.Masa/Formacion_3Masa (1).svg

<?xml version="1.0" encoding="UTF-8"?>
<svg width="24px" height="24px" viewBox="0 0 24 24" version="1.1" xmlns="http://www.w3.org/2000/svg" xmlns:xlink="http://www.w3.org/1999/xlink">
    <title>3.Masa/Formacion_3Masa (1)</title>
    <g id="Symbols" stroke="none" stroke-width="1" fill="none" fill-rule="evenodd">
        <g id="3.Masa/Formacion_3Masa-(1)" fill="#5CB615" fill-rule="nonzero">
            <path d="M22.9008403,17.1579832 C23.3008403,17.1579832 23.6235294,17.4840336 23.6235294,17.887395 C23.6235294,18.2907563 23.3008403,18.6168067 22.9008403,18.6168067 L12.2319328,18.6168067 C12.0168067,18.892437 11.7109244,19.0941176 11.3512605,19.1579832 C10.4571429,19.3193277 9.19663866,19.6621849 8.29243697,20.3815126 C7.98655462,20.6235294 7.62352941,20.7445378 7.2605042,20.7445378 C6.89747899,20.7445378 6.53445378,20.6235294 6.22857143,20.3815126 C5.32436975,19.6621849 4.06722689,19.3193277 3.1697479,19.1579832 C2.47394958,19.0336134 1.9697479,18.4252101 1.9697479,17.712605 L1.9697479,16.3243697 L6.2487395,18.2504202 C6.54789916,18.3882353 6.86722689,18.4554622 7.2,18.4554622 C7.52268908,18.4554622 7.85210084,18.3848739 8.14789916,18.2504202 L12.5478992,16.2739496 L13.9764706,15.6319328 C14.8168067,15.2554622 15.3613445,14.4117647 15.3613445,13.4806723 C15.3613445,12.5394958 14.8336134,11.712605 13.9764706,11.3294118 L8.14453782,8.70756303 C7.84537815,8.57310924 7.52605042,8.50252101 7.19663866,8.50252101 C6.86722689,8.50252101 6.5512605,8.5697479 6.24537815,8.70420168 L2.82016807,10.2436975 L2.82016807,6.53277311 C2.82016807,5.4302521 3.11596639,4.56302521 3.69411765,3.96806723 C4.29243697,3.34957983 5.17310924,3.03697479 6.31260504,3.03697479 L20.0571429,3.0302521 C21.1966387,3.0302521 22.0773109,3.34621849 22.6756303,3.96134454 C23.2571429,4.55966387 23.5495798,5.42352941 23.5495798,6.52605042 L23.5495798,13.0504202 C23.5495798,14.1563025 23.2571429,15.0235294 22.6756303,15.6285714 C22.0739496,16.2571429 21.1932773,16.5764706 20.0537815,16.5764706 L12.5378151,16.5798319 L12.5378151,17.1579832 L22.9008403,17.1579832 Z M7.2,17.4840336 C7.00840336,17.4840336 6.82016807,17.4436975 6.64201681,17.3630252 L0.813445378,14.7411765 C0.312605042,14.512605 0,14.0319328 0,13.4773109 C0,12.9260504 0.309243697,12.4420168 0.810084034,12.2168067 L6.64201681,9.59159664 C6.99495798,9.43361345 7.40168067,9.43361345 7.75462185,9.59159664 L13.5865546,12.2134454 C14.087395,12.4386555 14.4,12.9226891 14.4,13.4773109 C14.4,14.0218487 14.0806723,14.5193277 13.5865546,14.7378151 L7.75462185,17.3596639 C7.57983193,17.4436975 7.38823529,17.4840336 7.2,17.4840336 L7.2,17.4840336 Z" id="Formacion_3Masa-(1)"></path>
        </g>
    </g>
</svg>

<svg width="24" height="24" viewBox="0 0 24 24" xmlns="http://www.w3.org/2000/svg"><path d="M22.9 17.158c.4 0 .724.326.724.73 0 .403-.323.729-.723.729H12.23a1.439 1.439 0 01-.88.541c-.894.161-2.154.504-3.059 1.224a1.66 1.66 0 01-1.031.363 1.66 1.66 0 01-1.032-.363c-.905-.72-2.162-1.063-3.06-1.224a1.462 1.462 0 01-1.2-1.445v-1.389l4.28 1.926a2.312 2.312 0 001.9 0l4.399-1.976 1.428-.642a2.356 2.356 0 001.385-2.151c0-.942-.527-1.768-1.385-2.152L8.145 8.708a2.3 2.3 0 00-.948-.205c-.33 0-.646.067-.952.201l-3.425 1.54V6.533c0-1.103.296-1.97.874-2.565.598-.618 1.48-.931 2.619-.931l13.744-.007c1.14 0 2.02.316 2.619.931.581.599.874 1.463.874 2.565v6.524c0 1.106-.293 1.974-.874 2.579-.602.628-1.483.947-2.622.947l-7.516.004v.578H22.9zm-15.7.326c-.192 0-.38-.04-.558-.121L.813 14.741c-.5-.228-.813-.71-.813-1.264 0-.55.31-1.035.81-1.26l5.832-2.625c.353-.158.76-.158 1.113 0l5.832 2.621c.5.226.813.71.813 1.264 0 .545-.32 1.042-.813 1.26L7.755 17.36a1.284 1.284 0 01-.555.124z" fill="#5CB615" fill-rule="nonzero"/></svg>
